public/primaries/Barcode.svg

<svg id="Layer_1" data-name="Layer 1" xmlns="http://www.w3.org/2000/svg" width="64" height="64" viewBox="0 0 64 64"><defs><style>.cls-1{fill-rule:evenodd}</style></defs><title>Icons 200</title><path class="cls-1" d="M54 18v28a2 2 0 0 1-4 0V18a2 2 0 0 1 4 0zm-8-2a2 2 0 0 1 2 2v28a2 2 0 0 1-2 2h-2a2 2 0 0 1-2-2V18a2 2 0 0 1 2-2h2zm-10 0a2 2 0 0 1 2 2v28a2 2 0 0 1-2 2h-1a2 2 0 0 1-2-2V18a2 2 0 0 1 2-2h1zm-5 2v28a2 2 0 0 1-4 0V18a2 2 0 0 1 4 0zm-9 0v28a2 2 0 0 1-4 0V18a2 2 0 1 1 4 0zm-8-2a2 2 0 0 1 2 2v28a2 2 0 0 1-2 2h-2a2 2 0 0 1-2-2V18a2 2 0 0 1 2-2h2z"/></svg>

<svg id="Layer_1" data-name="Layer 1" xmlns="http://www.w3.org/2000/svg" width="64" height="64" viewBox="0 0 64 64">
  <defs>
    <style>
      .cls-1 {
        fill-rule: evenodd;
      }
    </style>
  </defs>
  <title>Icons 200</title>
  <path class="cls-1" d="M54,18V46a2,2,0,0,1-4,0V18A2,2,0,0,1,54,18Zm-8-2a2,2,0,0,1,2,2V46a2,2,0,0,1-2,2H44a2,2,0,0,1-2-2V18a2,2,0,0,1,2-2h2ZM36,16a2,2,0,0,1,2,2V46a2,2,0,0,1-2,2H35a2,2,0,0,1-2-2V18a2,2,0,0,1,2-2h1Zm-5,2V46a2,2,0,0,1-4,0V18A2,2,0,0,1,31,18Zm-9,0V46a2,2,0,0,1-4,0V18A2,2,0,1,1,22,18Zm-8-2a2,2,0,0,1,2,2V46a2,2,0,0,1-2,2H12a2,2,0,0,1-2-2V18a2,2,0,0,1,2-2h2Z"/>
</svg>
